public/assets/dashboard/home-plus.svg

<svg xmlns="http://www.w3.org/2000/svg" viewBox="0 0 24 24">
    <path fill="#ffffff80"
        d="M17 14h2v3h3v2h-3v3h-2v-3h-3v-2h3v-3m-5-11L22 12h-4c-3.31 0-6 2.69-6 6 0 .7.12 1.37.34 2H5v-8H2l10-9z" />
</svg>

<svg xmlns="http://www.w3.org/2000/svg" viewBox="0 0 24 24"><path d="M17 14H19V17H22V19H19V22H17V19H14V17H17V14M12 3L22 12H18C14.69 12 12 14.69 12 18C12 18.7 12.12 19.37 12.34 20H5V12H2L12 3Z" /></svg>
